X: 1
T: Tha Mi Sgith
T: Pulling Bracken
T: Cutting Ferns
C: Trad
%date: 1880
B: Kerr's Merrie Melodies, v.1
M: 4/4
L: 1/4
R: air, march
Z: 2013 John Chambers <jc:trillian.mit.edu> from versions by Tom Ellet and Terry Traub
R: air, song, march
K: Am
|:\
"Am"AA a2 | "Em"ge g2 | "C"e>d "D"BA | "Em"G>A BG |\
"Am"AA a2 | "Em"ge g2 | "C"e>d "Em"Be | "Am"A2 A2 :|
|:\
"Am"e>d "(D7)"BA | "G"GA BG | "Am"e>d "(D7)"BA | "G"B2 "(Em)"g2 |\
"C"e>d "(D7)"BA | "G"GA B{A}G | "C"e>d "Em"Be | "Am"A2 A2 :|
